X:34
T:Reel de Mattawa
M:2/2
L:1/8
K:EDor
ef|"Em"gefd ec dB|"D"ABAF D2 FD|"Em"EFGA B2 ef|"C"gfed "D"A2 ef|
"Em"gefd ec dB|"D"ABAF D2 FD|"Em"EFGA "C"B2 AG|1"D"FAGF "Em"E2:|"Bm"F
AGF "Em"E3||
A|:"Em"B2 eB gBeB|ABeB gBeB|"D"A2 fA gAfA|A2 fA gAfA|"Em/C"B2 eB gBe
B|ABeB "C"gBeB|
"D"f3 g fedc|1"C"Bc d2 "D"e3:|2"C/D"Bc d2 "Em"e2||
